assets/svg/icon_categories_business.svg

<svg width="24" height="24" viewBox="0 0 24 24" fill="none" xmlns="http://www.w3.org/2000/svg">
    <path
        d="M4 3.98594C3.66863 3.98594 3.4 4.25457 3.4 4.58594C3.4 4.91731 3.66863 5.18594 4 5.18594V3.98594ZM20 5.18594C20.3314 5.18594 20.6 4.91731 20.6 4.58594C20.6 4.25457 20.3314 3.98594 20 3.98594V5.18594ZM9.83489 10.1943L9.42792 9.75337L9.83489 10.1943ZM11.6285 10.1943L12.0355 9.75338V9.75338L11.6285 10.1943ZM12.3715 10.8801L11.9645 11.3209L12.3715 10.8801ZM14.1651 10.8801L13.7581 10.4392L14.1651 10.8801ZM10.1317 20.0493C9.83528 20.1975 9.71515 20.5579 9.86334 20.8543C10.0115 21.1507 10.3719 21.2708 10.6683 21.1226L10.1317 20.0493ZM13.3317 21.1226C13.6281 21.2708 13.9885 21.1507 14.1367 20.8543C14.2848 20.5579 14.1647 20.1975 13.8683 20.0493L13.3317 21.1226ZM17.5966 15.8244L18.0094 16.2599L17.5966 15.8244ZM4 5.18594H20V3.98594H4V5.18594ZM8.60209 12.1488L10.2419 10.6351L9.42792 9.75337L7.78815 11.267L8.60209 12.1488ZM11.2216 10.6351L11.9645 11.3209L12.7784 10.4392L12.0355 9.75338L11.2216 10.6351ZM14.5721 11.3209L16.2118 9.80731L15.3979 8.92554L13.7581 10.4392L14.5721 11.3209ZM11.9645 11.3209C12.1638 11.5049 12.3559 11.6839 12.5344 11.8096C12.7285 11.9463 12.9673 12.0654 13.2683 12.0654V10.8654C13.3066 10.8654 13.3084 10.887 13.2254 10.8285C13.1269 10.7592 13.0019 10.6455 12.7784 10.4392L11.9645 11.3209ZM13.7581 10.4392C13.5347 10.6455 13.4097 10.7592 13.3112 10.8285C13.2282 10.887 13.2299 10.8654 13.2683 10.8654V12.0654C13.5693 12.0654 13.8081 11.9463 14.0022 11.8096C14.1807 11.6839 14.3728 11.5049 14.5721 11.3209L13.7581 10.4392ZM10.2419 10.6351C10.4653 10.4289 10.5903 10.3151 10.6888 10.2458C10.7718 10.1873 10.7701 10.2089 10.7317 10.2089V9.00889C10.4307 9.00889 10.1919 9.128 9.99785 9.26468C9.81928 9.39044 9.62721 9.56941 9.42792 9.75337L10.2419 10.6351ZM12.0355 9.75338C11.8362 9.56941 11.6441 9.39044 11.4656 9.26468C11.2715 9.128 11.0327 9.00889 10.7317 9.00889V10.2089C10.6934 10.2089 10.6916 10.1873 10.7746 10.2458C10.8731 10.3151 10.9981 10.4289 11.2216 10.6351L12.0355 9.75338ZM12.6 19.7859V16.5859H11.4V19.7859H12.6ZM10.6683 21.1226L12.2683 20.3226L11.7317 19.2493L10.1317 20.0493L10.6683 21.1226ZM13.8683 20.0493L12.2683 19.2493L11.7317 20.3226L13.3317 21.1226L13.8683 20.0493ZM17.8 4.58594V11.3859H19V4.58594H17.8ZM12.9143 15.9859H11.0857V17.1859H12.9143V15.9859ZM6.2 11.3859V4.58594H5V11.3859H6.2ZM11.0857 15.9859C9.77662 15.9859 8.85205 15.9848 8.15191 15.8956C7.46588 15.8081 7.08676 15.6455 6.81614 15.389L5.99059 16.2599C6.52333 16.7649 7.19239 16.983 8.0002 17.0859C8.79389 17.1871 9.80882 17.1859 11.0857 17.1859V15.9859ZM5 11.3859C5 12.5937 4.99858 13.5632 5.10637 14.3231C5.21708 15.1037 5.45333 15.7506 5.99059 16.2599L6.81614 15.389C6.55004 15.1367 6.3846 14.79 6.29448 14.1546C6.20142 13.4985 6.2 12.6295 6.2 11.3859H5ZM17.8 11.3859C17.8 12.6295 17.7986 13.4985 17.7055 14.1546C17.6154 14.79 17.45 15.1367 17.1839 15.389L18.0094 16.2599C18.5467 15.7506 18.7829 15.1037 18.8936 14.3231C19.0014 13.5632 19 12.5937 19 11.3859H17.8ZM12.9143 17.1859C14.1912 17.1859 15.2061 17.1871 15.9998 17.0859C16.8076 16.983 17.4767 16.7649 18.0094 16.2599L17.1839 15.389C16.9132 15.6455 16.5341 15.8081 15.8481 15.8956C15.1479 15.9848 14.2234 15.9859 12.9143 15.9859V17.1859Z"
        fill="#9A9A9A" />
</svg>

<svg xmlns="http://www.w3.org/2000/svg" width="24" height="24" fill="none"><path fill="#9A9A9A" d="M4 3.986a.6.6 0 0 0 0 1.2zm16 1.2a.6.6 0 1 0 0-1.2zM9.835 10.194l-.407-.44zm1.793 0 .408-.44zm.743.686-.407.44zm1.794 0-.407-.44zm-4.033 9.17a.6.6 0 1 0 .536 1.073zm3.2 1.073a.6.6 0 1 0 .536-1.074zm4.265-5.299.412.436zM4 5.186h16v-1.2H4zm4.602 6.963 1.64-1.514-.814-.882-1.64 1.514zm2.62-1.514.742.686.814-.882-.742-.686zm3.35.686 1.64-1.514-.814-.881-1.64 1.513zm-2.607 0c.199.184.39.363.57.489.194.136.432.255.733.255v-1.2c.039 0 .04.022-.043-.037a5 5 0 0 1-.447-.389zm1.793-.882c-.223.207-.348.32-.447.39-.083.058-.081.036-.043.036v1.2c.301 0 .54-.119.734-.255.179-.126.37-.305.57-.49zm-3.516.196c.223-.206.348-.32.447-.39.083-.058.081-.036.043-.036v-1.2c-.301 0-.54.119-.734.256-.179.125-.37.304-.57.488zm1.793-.882c-.199-.184-.39-.363-.57-.488a1.25 1.25 0 0 0-.733-.256v1.2c-.039 0-.04-.022.043.037.098.07.223.183.447.39zm.565 10.033v-3.2h-1.2v3.2zm-1.932 1.337 1.6-.8-.536-1.074-1.6.8zm3.2-1.074-1.6-.8-.536 1.074 1.6.8zM17.8 4.586v6.8H19v-6.8zm-4.886 11.4h-1.828v1.2h1.828zm-6.714-4.6v-6.8H5v6.8zm4.886 4.6c-1.31 0-2.234-.001-2.934-.09-.686-.088-1.065-.25-1.336-.507l-.825.87c.532.506 1.201.724 2.01.827.793.101 1.808.1 3.085.1zM5 11.386c0 1.208-.001 2.177.106 2.937.111.78.347 1.428.885 1.937l.825-.871c-.266-.252-.431-.599-.522-1.234-.093-.656-.094-1.525-.094-2.77zm12.8 0c0 1.244-.001 2.113-.095 2.769-.09.635-.255.982-.521 1.234l.825.87c.538-.508.774-1.155.885-1.936.107-.76.106-1.73.106-2.937zm-4.886 5.8c1.277 0 2.292.001 3.086-.1.808-.103 1.477-.321 2.01-.826l-.826-.871c-.27.257-.65.42-1.336.507-.7.089-1.625.09-2.934.09z"/></svg>
